img/svg/viber.svg

<svg width="50" height="50" viewBox="0 0 50 50"  xmlns="http://www.w3.org/2000/svg">
<path d="M23.7469 0.00776385C19.7344 0.0562013 11.1078 0.715576 6.28283 5.14214C2.69376 8.69839 1.44064 13.9562 1.29376 20.4578C1.17189 26.9359 1.02501 39.1015 12.7516 42.414V47.4593C12.7516 47.4593 12.6781 49.4781 14.0125 49.8921C15.6563 50.4125 16.5922 48.8593 18.1547 47.1906L21.0688 43.8953C29.0922 44.5625 35.2375 43.025 35.9453 42.7968C37.5734 42.2765 46.7438 41.1046 48.2422 28.9375C49.7797 16.3718 47.4938 8.45464 43.3672 4.87339H43.3422C42.0969 3.72651 37.0922 0.0796388 25.911 0.0390138C25.911 0.0390138 25.0813 -0.0172362 23.7469 0.00620135V0.00776385ZM23.8844 3.54058C25.0235 3.53276 25.7156 3.5812 25.7156 3.5812C35.1797 3.6062 39.6969 6.45464 40.7625 7.41401C44.2375 10.3921 46.0281 17.5296 44.7172 28.0203C43.4719 38.1921 36.0344 38.8359 34.6578 39.275C34.0719 39.4625 28.6594 40.7968 21.8406 40.3578C21.8406 40.3578 16.7625 46.4859 15.175 48.064C14.9235 48.3406 14.6297 48.4218 14.4422 48.3812C14.1735 48.3156 14.0922 47.9828 14.1078 47.5265L14.1563 39.1531C4.21095 36.4031 4.79689 26.0265 4.90314 20.6062C5.02501 15.1859 6.0422 10.7515 9.07033 7.74839C13.1469 4.06245 20.4719 3.56558 23.8813 3.54058H23.8844ZM24.6344 8.95933C24.5525 8.9585 24.4713 8.97389 24.3954 9.00459C24.3196 9.0353 24.2505 9.08072 24.1923 9.13824C24.134 9.19576 24.0877 9.26423 24.0561 9.33972C24.0244 9.41521 24.008 9.49622 24.0078 9.57808C24.0078 9.92808 24.2922 10.2046 24.6344 10.2046C26.1836 10.1752 27.7233 10.4527 29.1648 11.0212C30.6062 11.5898 31.9208 12.438 33.0328 13.5171C35.3031 15.7218 36.4094 18.6843 36.4516 22.5578C36.4516 22.9 36.7281 23.1843 37.0781 23.1843V23.1593C37.2431 23.1597 37.4015 23.0949 37.5189 22.979C37.6363 22.8631 37.7031 22.7055 37.7047 22.5406C37.7806 20.7174 37.4849 18.8978 36.8357 17.1924C36.1865 15.487 35.1972 13.9315 33.9281 12.6203C31.4547 10.2031 28.3203 8.95776 24.6344 8.95776V8.95933ZM16.3985 10.3921C15.9562 10.3275 15.5051 10.4163 15.1203 10.6437H15.0875C14.1942 11.1674 13.3894 11.8292 12.7031 12.6046C12.1328 13.264 11.8235 13.9312 11.7422 14.5734C11.6938 14.9562 11.7266 15.339 11.8406 15.7046L11.8813 15.7296C12.5235 17.6171 13.3625 19.4328 14.3875 21.1421C15.7079 23.5436 17.3328 25.7646 19.2219 27.75L19.2781 27.8312L19.3672 27.8968L19.4235 27.9625L19.4891 28.0187C21.4816 29.9134 23.708 31.5459 26.1141 32.8765C28.8641 34.3734 30.5328 35.0812 31.5344 35.375V35.3906C31.8281 35.4796 32.0953 35.5203 32.3641 35.5203C33.2177 35.4577 34.0257 35.1112 34.6594 34.5359C35.4313 33.8494 36.0858 33.0414 36.5969 32.1437V32.1281C37.0766 31.225 36.9141 30.3703 36.2219 29.7921C34.8357 28.5804 33.3366 27.5042 31.7453 26.5781C30.6797 26 29.5969 26.35 29.1578 26.9359L28.2219 28.1156C27.7422 28.7015 26.8703 28.6203 26.8703 28.6203L26.8453 28.6359C20.3438 26.975 18.6094 20.3921 18.6094 20.3921C18.6094 20.3921 18.5281 19.4968 19.1297 19.0406L20.3016 18.0968C20.8625 17.6406 21.2531 16.5593 20.6516 15.4921C19.7319 13.8986 18.658 12.3992 17.4453 11.0156C17.1802 10.6894 16.8083 10.4674 16.3953 10.389L16.3985 10.3921ZM25.7156 12.2484C24.886 12.2484 24.886 13.5015 25.7235 13.5015C26.7551 13.5182 27.7734 13.7381 28.7201 14.1486C29.6668 14.5591 30.5233 15.1521 31.2406 15.8937C31.8951 16.6156 32.3979 17.4615 32.7195 18.3813C33.041 19.301 33.1747 20.276 33.1125 21.2484C33.1154 21.413 33.1825 21.5699 33.2997 21.6855C33.4168 21.8011 33.5745 21.8663 33.7391 21.8671L33.7641 21.9C33.9299 21.8987 34.0885 21.8323 34.2058 21.7151C34.323 21.5978 34.3894 21.4392 34.3906 21.2734C34.4469 18.7906 33.675 16.7078 32.161 15.039C30.6391 13.3703 28.5156 12.4343 25.8047 12.2484H25.7156V12.2484ZM26.7422 15.6171C25.8875 15.5921 25.8547 16.8703 26.7016 16.8953C28.761 17.0015 29.761 18.0421 29.8922 20.1828C29.8951 20.3453 29.9614 20.5002 30.0771 20.6144C30.1927 20.7285 30.3484 20.7929 30.511 20.7937H30.5359C30.6195 20.7901 30.7015 20.7699 30.7772 20.7343C30.8528 20.6987 30.9206 20.6484 30.9766 20.5863C31.0326 20.5241 31.0757 20.4515 31.1033 20.3726C31.131 20.2936 31.1426 20.21 31.1375 20.1265C30.9906 17.3359 29.4688 15.764 26.7672 15.6187H26.7422V15.6171Z" fill="black"/>
</svg>

<svg width="50" height="50" xmlns="http://www.w3.org/2000/svg"><path d="M23.747.008c-4.013.048-12.64.708-17.464 5.134-3.59 3.556-4.842 8.814-4.99 15.316-.121 6.478-.268 18.644 11.459 21.956v5.045s-.074 2.02 1.26 2.433c1.644.52 2.58-1.033 4.143-2.701l2.914-3.296c8.023.667 14.168-.87 14.876-1.098 1.628-.52 10.799-1.692 12.297-13.86 1.538-12.565-.748-20.482-4.875-24.064h-.025C42.097 3.727 37.092.08 25.911.04c0 0-.83-.056-2.164-.033v.002zm.137 3.533c1.14-.008 1.832.04 1.832.04 9.464.025 13.98 2.874 15.047 3.833 3.474 2.978 5.265 10.116 3.954 20.606-1.245 10.172-8.683 10.816-10.06 11.255-.585.188-5.998 1.522-12.816 1.083 0 0-5.079 6.128-6.666 7.706-.252.277-.545.358-.733.317-.268-.065-.35-.398-.334-.855l.048-8.373c-9.945-2.75-9.36-13.127-9.253-18.547.122-5.42 1.14-9.855 4.167-12.858 4.077-3.686 11.402-4.182 14.811-4.207h.003zm.75 5.418a.62.62 0 00-.626.62c0 .35.284.626.626.626a11.741 11.741 0 018.399 3.312c2.27 2.205 3.376 5.167 3.419 9.04 0 .343.276.627.626.627v-.025a.625.625 0 00.627-.618 13.46 13.46 0 00-3.777-9.92c-2.473-2.418-5.608-3.663-9.294-3.663v.001zm-8.236 1.433a1.957 1.957 0 00-1.278.252h-.032a9.81 9.81 0 00-2.385 1.96c-.57.66-.88 1.327-.96 1.97-.05.382-.016.765.098 1.13l.04.026a28.164 28.164 0 002.506 5.412 31.842 31.842 0 004.835 6.608l.056.081.09.066.056.066.065.056a32.293 32.293 0 006.625 4.858c2.75 1.496 4.419 2.204 5.42 2.498v.016c.294.089.561.13.83.13a3.832 3.832 0 002.295-.985 9.476 9.476 0 001.938-2.392v-.016c.48-.903.317-1.758-.375-2.336a28.857 28.857 0 00-4.477-3.214c-1.065-.578-2.148-.228-2.587.358l-.936 1.18c-.48.585-1.352.504-1.352.504l-.025.016c-6.501-1.661-8.236-8.244-8.236-8.244s-.08-.895.52-1.351l1.173-.944c.56-.456.951-1.538.35-2.605a28.108 28.108 0 00-3.207-4.476 1.781 1.781 0 00-1.05-.627l.003.003zm9.318 1.856c-.83 0-.83 1.254.008 1.254a7.852 7.852 0 015.517 2.392 7.281 7.281 0 011.871 5.354.63.63 0 00.627.62l.025.032a.632.632 0 00.627-.627c.056-2.482-.716-4.565-2.23-6.234-1.522-1.669-3.645-2.605-6.356-2.79h-.09zm1.026 3.37c-.855-.026-.887 1.252-.04 1.277 2.059.107 3.059 1.147 3.19 3.288a.622.622 0 00.619.61h.025a.63.63 0 00.601-.666c-.146-2.791-1.668-4.363-4.37-4.508h-.025v-.002z"/></svg>
